X: 1
T: Old Jimmy Sutton
R: reel
Z: 2011 John Chambers <jc:trillian.mit.edu>
B: David Brody: "Fiddler Fakebook" p.206
M: C|
L: 1/8
K: A
fa2f a2a2- | abaf ec3 | fa2f a2a2- | abaf ec3 | 
fa2f a2a2- | abaf ec3 | fa2f a2g2- | gfgf ecec ||
d[f2d2][fd] [f2d2]ef- | fe[fd]d ed[ec][ec] | d[f2d2][fd] [f2d2]fg- | gfgf ec[ec][ec] |
d[f2d2][fd] [f2d2]ef- | fe[fd]d ed[ec][ec] | dd[eA]c d2fg- | gf[fd]d ecec |]
